icons/communication/comment-question-24.svg

<svg width="24" height="24" viewBox="0 0 24 24" fill="none" xmlns="http://www.w3.org/2000/svg">
<path d="M11.1589 6.7104C11.4708 6.53071 11.8374 6.46503 12.1939 6.52498C12.5504 6.58493 12.8738 6.76665 13.1067 7.03796C13.3397 7.30927 13.4672 7.65377 13.4666 8.0084C13.4666 8.36048 13.1871 8.72769 12.6589 9.07298C12.4181 9.23038 12.1718 9.35163 11.9827 9.43403C11.8893 9.47475 11.6909 9.54918 11.6909 9.54918C11.3787 9.65195 11.1683 9.93876 11.1683 10.2618L11.1683 10.9944C11.1683 11.4095 11.5116 11.7461 11.935 11.7461C12.3584 11.7461 12.7017 11.4096 12.7017 10.9944V11.0209C12.7017 10.9284 12.7017 10.8822 12.7154 10.8428C12.7279 10.8067 12.7463 10.7772 12.7733 10.7498C12.8027 10.7199 12.8472 10.6975 12.9362 10.6527C13.1139 10.5631 13.3107 10.4537 13.5094 10.3239C14.1302 9.91808 14.9998 9.15876 15 8.00886C15.0009 7.29943 14.7458 6.61254 14.2798 6.0698C13.8136 5.52688 13.1666 5.16323 12.4531 5.04326C11.7397 4.92329 11.006 5.05473 10.382 5.4143C9.75796 5.77388 9.28385 6.33839 9.04365 7.00784C8.90314 7.39946 9.11304 7.8286 9.51247 7.96637C9.91191 8.10413 10.3496 7.89834 10.4901 7.50672C10.6102 7.17218 10.8471 6.89009 11.1589 6.7104Z" fill="black"/>
<path d="M13 13.7461C13 13.1938 12.5523 12.7461 12 12.7461C11.4477 12.7461 11 13.1938 11 13.7461C11 14.2984 11.4477 14.7461 12 14.7461C12.5523 14.7461 13 14.2984 13 13.7461Z" fill="black"/>
<path fill-rule="evenodd" clip-rule="evenodd" d="M2.75 2C1.7835 2 1 2.7835 1 3.75V16.25C1 17.2165 1.7835 18 2.75 18H5V20.7183C5 21.8076 6.29633 22.3757 7.09724 21.6374L10.9712 18.0662C11.0173 18.0236 11.0778 18 11.1406 18H21.25C22.2165 18 23 17.2165 23 16.25V3.75C23 2.7835 22.2165 2 21.25 2H2.75ZM2.5 3.75C2.5 3.61193 2.61193 3.5 2.75 3.5H21.25C21.3881 3.5 21.5 3.61193 21.5 3.75V16.25C21.5 16.3881 21.3881 16.5 21.25 16.5H11.1406C10.7011 16.5 10.2776 16.6654 9.95446 16.9633L6.5 20.1478V17.5C6.5 16.9477 6.05228 16.5 5.5 16.5H2.75C2.61193 16.5 2.5 16.3881 2.5 16.25V3.75Z" fill="black"/>
</svg>

<svg xmlns="http://www.w3.org/2000/svg" width="24" height="24"><path d="M11.159 6.71a1.558 1.558 0 011.948.328c.233.271.36.616.36.97 0 .352-.28.72-.808 1.065a4.663 4.663 0 01-.968.476.753.753 0 00-.523.713v.732a.76.76 0 00.767.752.76.76 0 00.767-.752v.027c0-.093 0-.139.013-.178a.24.24 0 01.058-.093.63.63 0 01.163-.097 5.9 5.9 0 00.573-.33C14.13 9.919 15 9.16 15 8.01a2.97 2.97 0 00-.72-1.94 3.08 3.08 0 00-1.827-1.026 3.117 3.117 0 00-2.071.371 3.02 3.02 0 00-1.338 1.594c-.14.391.069.82.468.958a.77.77 0 00.978-.46 1.51 1.51 0 01.669-.796zM13 13.746a1 1 0 10-2 0 1 1 0 002 0z"/><path fill-rule="evenodd" d="M2.75 2A1.75 1.75 0 001 3.75v12.5c0 .966.784 1.75 1.75 1.75H5v2.718c0 1.09 1.296 1.658 2.097.92l3.874-3.572a.25.25 0 01.17-.066H21.25A1.75 1.75 0 0023 16.25V3.75A1.75 1.75 0 0021.25 2H2.75zM2.5 3.75a.25.25 0 01.25-.25h18.5a.25.25 0 01.25.25v12.5a.25.25 0 01-.25.25H11.14c-.439 0-.862.165-1.186.463L6.5 20.148V17.5a1 1 0 00-1-1H2.75a.25.25 0 01-.25-.25V3.75z"/></svg>
